img/svg/partners-image-4.svg

<svg width="165" height="54" viewBox="0 0 165 54" fill="none" xmlns="http://www.w3.org/2000/svg">
<path d="M31.8677 43.5294C33.6662 49.4682 39.221 53.5242 47.6702 53.5242H125.418C129.165 53.5242 134.289 54.3204 142.279 47.9695C157.182 36.045 158.578 15.8869 157.06 10.2385C155.693 5.1146 151.496 1.36773 146.072 1.36773H63.7349C59.6321 1.36773 55.1827 1.16165 47.4454 7.99033C40.8883 13.7418 37.3569 20.5236 33.3196 30.2374C34.1908 25.3009 30.4345 20.4581 30.4345 20.4581C32.1271 18.896 33.309 16.8597 33.8259 14.6153C34.3428 12.3708 34.1706 10.0226 33.3318 7.87762C32.493 5.73259 31.0267 3.8905 29.1244 2.59205C27.2221 1.29361 24.9723 0.599199 22.6692 0.59961C16.3557 0.59961 10.7635 5.51738 10.7635 11.8402C10.7586 13.115 10.9676 14.3815 11.3817 15.5871C11.3817 15.5871 7.21331 12.9456 5.90191 12.2899C4.5905 11.6342 2.28617 11.0815 1.21831 12.5147C0.655356 13.4183 0.356934 14.4616 0.356934 15.5262C0.356934 16.5909 0.655356 17.6342 1.21831 18.5378C2.42668 20.5143 6.37962 26.3219 10.2108 28.4108C10.2108 28.4108 9.77054 33.3379 12.843 35.202C12.843 35.202 12.7306 38.6023 14.1638 39.4734C14.1638 39.4734 14.3792 41.1314 15.1005 41.5623V45.075C15.1005 45.075 10.9321 48.5783 13.0116 51.632C15.0911 54.6857 20.0276 53.1683 21.0205 52.5032C21.0205 52.5032 28.0366 54.4797 29.451 51.4072C30.8655 48.3348 29.6664 46.1522 28.0272 45.0563V42.0869L31.849 43.5294H31.8677Z" fill="white"/>
<path d="M48.1099 48.9901C36.9255 48.9901 34.2465 41.7212 38.6772 30.5742C42.0775 22.022 45.1499 16.205 50.7421 11.2779C57.1399 5.65755 60.8212 5.79805 64.2215 5.79805H144.03C148.535 5.79805 152.919 8.74871 153.135 13.1419C153.35 17.5351 150.896 34.5178 138.55 44.3815C131.993 49.6458 127.694 48.9901 124.621 48.9901H48.1099Z" fill="#EAA94D"/>
<path d="M48.1104 50.0864C45.892 50.1389 43.6835 49.7735 41.6002 49.0092C39.7161 48.3173 38.1127 47.0234 37.0384 45.3279C36.0039 43.5782 35.4874 41.5707 35.549 39.539C35.6681 36.3123 36.3859 33.136 37.666 30.1718C39.1169 26.3125 40.8807 22.5782 42.9397 19.0061C44.8317 15.8004 47.2185 12.9141 50.0119 10.4539C56.569 4.69304 60.4095 4.70239 63.9222 4.70239H144.105C144.797 4.71037 145.486 4.77619 146.166 4.89912C146.839 5.02917 147.5 5.214 148.143 5.45178C151.468 6.71635 154.053 9.4703 154.241 13.086V13.1422C154.264 14.0459 154.23 14.9501 154.138 15.8494C154.035 16.9547 153.866 18.2473 153.594 19.6618C152.217 26.9682 148.339 37.9559 139.244 45.2248C132.986 50.2363 128.687 50.152 125.53 50.0864H48.1104ZM42.4058 46.9765C44.2318 47.6437 46.1669 47.9614 48.1104 47.9132H124.622H125.558C128.368 47.9694 132.228 48.0444 137.867 43.5294C146.447 36.6726 150.11 26.2282 151.43 19.2684C151.683 17.9101 151.852 16.683 151.946 15.662C152.031 14.8594 152.062 14.052 152.039 13.2453V13.1891C151.899 10.5288 149.913 8.50549 147.356 7.5032C146.839 7.30664 146.306 7.15617 145.763 7.05357C145.213 6.95109 144.655 6.8947 144.096 6.88496H63.9316C60.8123 6.88496 57.3745 6.88496 51.4639 12.0931C48.8374 14.4194 46.5931 17.1442 44.8131 20.1676C42.8134 23.6382 41.0998 27.2659 39.6893 31.0148C38.5113 33.7225 37.8474 36.6258 37.7316 39.5764C37.676 41.1992 38.0751 42.8052 38.8837 44.2132C39.7165 45.5082 40.9502 46.4951 42.3964 47.0234L42.4058 46.9765Z" fill="#201600"/>
<path d="M44.5978 40.663H71.7626C74.835 40.663 82.282 38.2931 83.0501 31.8953C83.3873 29.1414 80.802 26.9495 79.3032 26.4062C79.3032 26.4062 89.0076 25.1978 89.0076 17.9757C89.0076 14.6316 85.3919 12.983 82.6473 12.983H58.4706L44.5978 40.6724V40.663ZM65.3274 23.0621L69.2147 17.3106H74.6945C75.4627 17.3106 77.5984 17.4137 77.5047 19.6618C77.411 21.9099 73.5049 23.0621 72.1935 23.0621H65.3274ZM56.5503 35.6141L61.7023 27.83H68.6059C69.9266 27.83 71.1257 28.8229 70.5824 31.2865C70.0391 33.75 66.0299 35.6141 64.8309 35.6141H56.5503Z" fill="#201600"/>
<path d="M83.435 40.663H96.3804L104.165 19.2215H96.2118L83.435 40.663Z" fill="#201600"/>
<path d="M102.805 18.622C105.006 18.3316 106.608 16.6268 106.374 14.8096C106.14 12.9923 104.154 11.7559 101.943 12.0462C99.7327 12.3366 98.1496 14.0321 98.3838 15.8493C98.618 17.6666 100.604 18.903 102.805 18.6595V18.622Z" fill="#201600"/>
<path d="M132.031 25.1974H137.652L148.789 13.2449H137.352L136.2 15.3338C136.2 15.3338 134.167 12.3176 126.936 12.3176C119.704 12.3176 109.138 16.4298 106.646 25.8532C104.155 35.2765 110.824 41.1029 119.479 41.1029C128.135 41.1029 133.296 38.5738 137.567 33.7497L134.223 30.5742C134.223 30.5742 129.54 37.815 120.688 35.7262C116.894 34.7894 116.941 27.0615 121.887 21.9096C126.832 16.7576 130.167 17.3665 131.319 18.0222C132.472 18.6779 134.551 19.9987 132.031 25.1974Z" fill="#201600"/>
<path d="M14.3415 12.4865C14.3397 10.9243 14.8012 9.39667 15.6678 8.09686C16.5343 6.79705 17.767 5.78347 19.2097 5.18436C20.6524 4.58526 22.2405 4.42752 23.7729 4.73115C25.3053 5.03479 26.7132 5.78614 27.8184 6.89011C28.9237 7.99409 29.6767 9.40108 29.9822 10.9331C30.2876 12.4651 30.1318 14.0534 29.5344 15.4968C28.937 16.9403 27.9249 18.1741 26.6261 19.0422C25.3273 19.9103 23.8003 20.3736 22.2381 20.3737C21.2015 20.3749 20.1749 20.1718 19.2169 19.776C18.2589 19.3801 17.3883 18.7994 16.655 18.0669C15.9216 17.3344 15.3398 16.4645 14.9428 15.5069C14.5459 14.5494 14.3415 13.523 14.3415 12.4865Z" fill="#201600"/>
<path d="M16.9177 10.9504C16.9177 10.3946 17.0825 9.85126 17.3913 9.38914C17.7 8.92701 18.1389 8.56683 18.6524 8.35414C19.1659 8.14144 19.7309 8.0858 20.276 8.19423C20.8212 8.30266 21.3219 8.57028 21.7149 8.96329C22.1079 9.35629 22.3755 9.85704 22.484 10.4022C22.5924 10.9473 22.5368 11.5123 22.3241 12.0258C22.1114 12.5393 21.7512 12.9782 21.289 13.2869C20.8269 13.5957 20.2836 13.7605 19.7278 13.7605C18.9825 13.7605 18.2677 13.4645 17.7407 12.9374C17.2137 12.4104 16.9177 11.6957 16.9177 10.9504Z" fill="white"/>
<path d="M3.48542 16.5707C4.2348 19.9617 8.11281 23.4556 11.0541 25.6663C11.2696 25.8349 11.766 26.4063 11.6536 25.3946C11.6536 25.3946 11.6536 24.8982 12.0377 25.2822C12.4217 25.6663 28.8986 38.3963 29.6386 38.9302C30.008 39.2001 30.4111 39.4206 30.8376 39.5859C31.409 39.8482 31.8305 40.1292 32.1209 40.251C32.6548 40.4383 32.786 40.3259 32.5143 39.895L31.7743 38.6866C31.5278 38.2453 31.2115 37.8467 30.8376 37.5064L15.4098 24.0458C15.4098 24.0458 5.16214 15.0532 4.66568 14.5099C4.16922 13.9666 3.89757 13.7419 3.72896 14.3788C3.54346 15.0954 3.43975 15.8308 3.41985 16.5707H3.48542Z" fill="#201600"/>
<path d="M27.4646 35.3423L28.1952 35.1644C27.9236 34.4806 28.5231 34.0216 28.5886 33.6937C28.7385 33.0661 28.8884 27.0898 28.4013 25.9658C27.9985 25.0291 25.0291 21.4133 24.6544 21.3665C24.4202 21.3665 24.2142 21.6569 24.0643 21.966C23.9625 22.037 23.8476 22.087 23.7263 22.1131C23.605 22.1393 23.4797 22.1411 23.3576 22.1185C23.2356 22.0958 23.1193 22.0491 23.0155 21.9811C22.9117 21.9132 22.8224 21.8252 22.7529 21.7224L22.8466 21.4976C23.0058 21.1417 22.706 21.1136 22.5093 21.1417C22.3126 21.1698 21.5726 21.1417 21.5726 21.1417C21.3572 21.1417 21.2916 21.2728 21.3291 21.4133C21.2073 21.7037 20.8045 22.35 19.8865 21.6194C19.4369 21.1885 19.0903 21.4133 18.7156 21.4883C17.8356 21.6533 16.9731 21.9011 16.1396 22.2283C15.3809 22.5936 13.8072 30.4245 13.7042 31.1926C13.6011 31.9608 13.8353 31.9608 14.0039 32.1294C14.5418 32.4725 15.0984 32.7853 15.6713 33.0661C16.2239 33.3377 16.2989 33.5345 16.2989 33.778V37.3937C16.2989 37.7216 16.1771 38.6302 16.889 38.6021C17.6009 38.574 17.6197 39.0049 17.6478 39.2016C17.6759 39.3983 17.423 40.794 18.0599 40.8502C18.6969 40.9064 18.7437 40.9439 18.7437 41.5153V46.3956C18.7437 47.0888 18.7437 47.3323 18.547 47.4635C17.1232 48.2878 15.7369 50.105 16.5518 50.5078C17.6759 51.0792 20.2987 48.6999 21.1324 48.728C21.5726 48.728 21.7881 49.0559 22.425 49.084C22.7997 49.084 23.0807 49.4399 24.0643 49.8802C25.0478 50.3205 25.8628 50.0863 25.9377 49.2432C25.9377 48.6437 25.4413 48.1754 24.7575 47.7726C24.0736 47.3698 23.9893 47.0232 23.9893 47.0232C23.9767 45.8736 24.0487 44.7245 24.2048 43.5854C24.2048 41.0657 24.6544 41.1593 25.0478 40.7753C25.2352 40.616 25.104 39.7636 25.104 39.4077C25.104 39.0517 25.0197 38.6677 25.5724 38.6677C26.1251 38.6677 26.6684 38.4991 26.6122 38.012C26.5466 37.3844 26.556 36.3633 27.0899 36.9066L27.5114 35.3517L27.4646 35.3423ZM23.905 22.3313V22.4063C23.802 22.6873 23.3055 23.8956 22.9683 23.8956C22.6311 23.8956 22.3032 22.6498 22.4157 22.4625C22.4946 22.3142 22.5634 22.1609 22.6217 22.0034C22.7776 22.1783 22.9819 22.3029 23.2088 22.3613C23.4357 22.4197 23.6748 22.4092 23.8957 22.3313H23.905ZM21.4883 21.6943C21.6343 21.945 21.7298 22.2219 21.7693 22.5093C21.6288 23.8769 21.1324 23.9987 20.9731 23.5959C20.7877 23.102 20.5589 22.6255 20.2893 22.1721C20.5123 22.2614 20.7611 22.2616 20.9842 22.1726C21.2074 22.0837 21.3878 21.9125 21.4883 21.6943Z" fill="#201600"/>
<path d="M14.6517 31.8765C15.1152 32.1805 15.634 32.3906 16.1785 32.4947C16.7031 32.6727 16.6188 31.558 16.6188 31.3706C16.6188 30.9023 15.8881 30.5651 15.9631 30.1061C16.1828 29.0038 16.5155 27.9271 16.956 26.8931C16.956 26.8182 17.0871 26.6402 17.1808 26.6402C17.2745 26.6402 17.3026 26.7058 17.3119 26.9681C17.1059 30.5557 16.8904 33.6843 16.8904 37.3469C16.8904 38.4897 17.9021 38.2836 18.3142 38.2836C20.6373 38.2836 22.9416 38.2836 25.4052 38.1338C25.808 38.1338 25.9672 37.5624 25.9953 37.2907C26.0703 35.5484 25.7237 33.778 25.8267 31.9514C25.8923 30.818 25.6862 28.42 26.2014 28.42C26.7166 28.42 25.8548 33.7312 26.6979 34.977C28.7867 34.4056 28.3184 29.9094 28.131 27.0524C28.0467 25.8815 25.7705 23.1369 24.7307 22.2564C24.3092 23.0058 23.794 23.8582 23.3538 24.5888C22.9978 25.1696 22.4171 26.2 21.9862 26.2C21.5553 26.2 20.7028 24.3265 20.2813 23.3055C20.094 22.8278 19.6444 21.9473 19.1947 22.0128C18.258 22.144 16.3377 22.4531 16.1223 23.1931C15.2644 25.8155 14.6375 28.5079 14.2489 31.2395C14.1833 31.7547 14.38 31.6891 14.6142 31.9233L14.6517 31.8765Z" fill="#EAA94D"/>
<path d="M22.4827 38.5742C22.9792 38.5742 23.4944 38.724 23.9347 38.7428C24.6934 38.7428 24.478 39.5109 24.5061 39.8949C24.5342 40.279 24.1033 40.4382 23.6911 40.4382C23.2789 40.4382 22.8668 40.4382 22.5389 40.4382C22.2111 40.4382 21.7708 40.3071 21.7708 39.8387C21.7708 39.3704 21.7708 39.3516 21.7708 39.2486C21.7708 38.8926 21.9301 38.5742 22.4827 38.5742Z" fill="#EAA94D"/>
<path d="M19.0632 38.7424C19.3348 38.7424 20.0936 38.7424 20.3465 38.7424C20.4118 38.7419 20.4765 38.7553 20.5362 38.7818C20.5959 38.8083 20.6492 38.8473 20.6927 38.896C20.7361 38.9448 20.7686 39.0023 20.7881 39.0646C20.8075 39.127 20.8135 39.1927 20.8055 39.2576C20.8055 39.6229 20.9741 40.4285 19.8688 40.4285C19.3587 40.4576 18.8488 40.3678 18.3794 40.1662C18.2482 40.0257 18.267 39.6229 18.2951 39.3138C18.3513 38.8079 18.7634 38.7611 19.1006 38.7424H19.0632Z" fill="#EAA94D"/>
<path d="M21.9669 40.9907C22.3501 40.8654 22.7565 40.827 23.1565 40.8783C23.4843 40.8783 23.7653 41.1218 23.7466 42.0867C23.7287 42.5885 23.6818 43.089 23.6061 43.5854C23.6061 43.8945 23.3532 44.1381 22.8942 44.1662C22.5468 44.1992 22.1963 44.1803 21.8545 44.11C21.6577 44.0631 21.5453 43.8664 21.5172 43.3138C21.5023 42.6885 21.5242 42.063 21.5828 41.4403C21.5828 41.2249 21.6858 41.1968 21.9669 41.0375V40.9907Z" fill="white"/>
<path d="M19.4462 40.9067C19.8641 40.8788 20.2834 40.8788 20.7014 40.9067C21.0292 40.9629 21.1978 41.1502 21.1697 42.115C21.1416 43.0798 21.1697 43.3702 21.0948 43.67C21.0199 43.9697 20.7857 44.1664 20.3173 44.1945C20.0042 44.2284 19.6875 44.2094 19.3806 44.1383C19.1933 44.0915 19.0809 43.8948 19.0621 43.3421C19.0423 42.7173 19.0579 42.0918 19.109 41.4687C19.109 41.2532 19.109 40.9816 19.4462 40.9816V40.9067Z" fill="white"/>
<path d="M22.407 42.0866C22.3191 42.1994 22.2582 42.3308 22.229 42.4707C22.229 42.836 22.4163 42.9859 22.6599 42.9859C22.9034 42.9859 23.0158 42.7798 23.0908 42.4707C23.1015 42.4072 23.0985 42.3422 23.082 42.28C23.0654 42.2178 23.0357 42.1599 22.9949 42.1102C22.954 42.0605 22.903 42.0201 22.8452 41.9918C22.7874 41.9635 22.7242 41.9479 22.6599 41.9461C22.5194 41.9461 22.4913 41.9461 22.407 42.0866Z" fill="#201600"/>
<path d="M19.9433 42.1433C19.9433 42.1433 19.8122 42.1433 19.7841 42.5461C19.772 42.6078 19.7728 42.6714 19.7863 42.7328C19.7999 42.7942 19.8259 42.8522 19.8628 42.9031C19.8997 42.9541 19.9467 42.9969 20.0008 43.0289C20.0549 43.061 20.1151 43.0816 20.1775 43.0894C20.3086 43.0894 20.5615 42.8365 20.5615 42.5367C20.5615 42.237 20.5053 41.9934 20.2524 41.9934C20.1494 41.9934 19.9901 42.1433 19.9433 42.1433Z" fill="#201600"/>
<path d="M22.8099 46.9109C22.9785 46.9109 23.4094 46.6111 23.4094 46.4425V45.2529C23.4132 45.1821 23.4025 45.1113 23.3777 45.0449C23.353 44.9784 23.3148 44.9178 23.2656 44.8668C23.2163 44.8158 23.1571 44.7756 23.0916 44.7485C23.0261 44.7215 22.9557 44.7082 22.8848 44.7096H21.7795C21.6015 44.7096 21.3954 45.1873 21.3954 45.3653V46.302C21.3954 46.6111 21.9574 46.8828 22.1261 46.8828L22.8099 46.9109Z" fill="#EAA94D"/>
<path d="M20.6826 46.8918C20.7664 46.8894 20.846 46.8551 20.9052 46.7959C20.9645 46.7367 20.9988 46.657 21.0011 46.5733V45.1027C20.9987 45.0198 20.9641 44.9412 20.9046 44.8835C20.8451 44.8258 20.7655 44.7935 20.6826 44.7936H19.6804C19.1652 44.7467 19.1839 45.2338 19.1839 45.4024V46.5733C19.1839 46.8824 19.6897 46.9386 19.8677 46.9386L20.6452 46.8918H20.6826Z" fill="#EAA94D"/>
<path d="M24.1031 48.1376C23.8877 48.0533 23.6067 48.1377 23.4942 47.969C23.3818 47.8004 23.4287 47.4164 23.2132 47.3134C22.7542 47.126 21.6957 47.0979 21.6489 47.5944C21.5646 48.5311 22.3514 48.3157 22.9884 48.6622C23.8127 49.1025 24.6183 49.8612 25.4426 49.2898C25.63 48.9339 24.89 48.4093 24.5059 48.4093C24.4186 48.4125 24.3326 48.388 24.2602 48.3392C24.1878 48.2903 24.1328 48.2198 24.1031 48.1376Z" fill="#EAA94D"/>
<path d="M19.0252 47.7071C19.1189 47.3979 19.2969 47.2949 19.6528 47.3136C19.918 47.3282 20.1838 47.3282 20.449 47.3136C21.0204 47.3136 20.9736 48.2035 20.5614 48.4096C19.9432 48.7281 19.9151 48.5688 19.6247 48.7281C19.1564 49.0185 19.0627 49.3276 18.688 49.5805C18.3133 49.8334 17.2642 50.2456 17.0487 50.0582C16.8333 49.8709 17.0487 49.1215 17.5171 48.8405C17.7615 48.6748 18.04 48.5659 18.332 48.522C18.4725 48.4658 18.6599 48.1379 18.7723 48.1379C18.8847 48.1379 19.0252 47.7914 19.0439 47.7071H19.0252Z" fill="#EAA94D"/>
<path d="M10.8572 24.8512C10.9321 24.9261 11.1194 24.8512 11.185 24.8512L11.2693 24.7294C11.2875 24.7127 11.302 24.6925 11.3119 24.6699C11.3219 24.6473 11.327 24.6229 11.327 24.5983C11.327 24.5736 11.3219 24.5492 11.3119 24.5266C11.302 24.5041 11.2875 24.4838 11.2693 24.4671L6.40775 19.8866C6.33281 19.8116 6.12673 19.8866 6.05179 19.999L6.1361 19.8959C6.09961 19.9225 6.069 19.9564 6.04621 19.9954C6.02343 20.0344 6.00894 20.0777 6.00366 20.1225C5.99839 20.1674 6.00244 20.2128 6.01556 20.2561C6.02867 20.2993 6.05057 20.3393 6.07989 20.3737L10.8197 24.8606L10.8572 24.8512Z" fill="white"/>
<path d="M160.723 12.9924C159.89 12.9906 159.076 12.7418 158.384 12.2775C157.692 11.8132 157.153 11.1542 156.835 10.3838C156.518 9.61339 156.436 8.76617 156.599 7.94911C156.763 7.13205 157.165 6.38184 157.755 5.79327C158.345 5.20469 159.096 4.80415 159.913 4.64227C160.731 4.48038 161.578 4.56439 162.348 4.88371C163.117 5.20302 163.775 5.7433 164.238 6.43629C164.701 7.12928 164.948 7.94388 164.948 8.77717C164.966 9.33647 164.869 9.89356 164.663 10.4139C164.457 10.9342 164.147 11.4066 163.75 11.8019C163.354 12.1972 162.881 12.5068 162.36 12.7116C161.84 12.9164 161.282 13.012 160.723 12.9924ZM160.723 5.54551C159.908 5.60758 159.147 5.97497 158.592 6.57419C158.037 7.17341 157.728 7.96022 157.728 8.77717C157.728 9.59413 158.037 10.3809 158.592 10.9802C159.147 11.5794 159.908 11.9468 160.723 12.0089C161.551 11.9643 162.331 11.6039 162.901 11.0018C163.472 10.3998 163.79 9.60191 163.79 8.77248C163.79 7.94306 163.472 7.14519 162.901 6.54315C162.331 5.9411 161.551 5.58071 160.723 5.53613V5.54551ZM160.02 11.044H159.084V6.50095H160.779C161.95 6.50095 162.653 6.83816 162.653 7.86855C162.67 8.02106 162.655 8.17559 162.607 8.32156C162.56 8.46754 162.481 8.60154 162.377 8.71445C162.273 8.82736 162.146 8.9165 162.004 8.97582C161.863 9.03514 161.71 9.06326 161.557 9.0582L162.718 11.044H161.566L160.526 9.17061H160.03V11.044H160.02ZM160.882 8.36501C161.313 8.36501 161.566 8.27134 161.566 7.77488C161.566 7.27842 161.07 7.26907 160.704 7.26907H160.03V8.36501H160.882Z" fill="#201600"/>
</svg>

<svg width="165" height="54" viewBox="0 0 165 54" fill="none" xmlns="http://www.w3.org/2000/svg"><path d="M31.868 43.53c1.798 5.938 7.353 9.994 15.802 9.994h77.748c3.747 0 8.871.796 16.861-5.555 14.903-11.924 16.299-32.082 14.781-37.73-1.367-5.124-5.564-8.871-10.988-8.871H63.735c-4.103 0-8.552-.206-16.29 6.622-6.557 5.752-10.088 12.534-14.125 22.247.87-4.936-2.886-9.779-2.886-9.779A11.447 11.447 0 0022.67.6c-6.313 0-11.905 4.917-11.905 11.24a11.4 11.4 0 00.618 3.747s-4.169-2.641-5.48-3.297c-1.312-.656-3.616-1.208-4.684.225a5.695 5.695 0 000 6.023c1.209 1.976 5.162 7.784 8.993 9.873 0 0-.44 4.927 2.632 6.791 0 0-.112 3.4 1.32 4.271 0 0 .216 1.658.938 2.09v3.512s-4.169 3.503-2.09 6.557c2.08 3.054 7.017 1.536 8.01.871 0 0 7.016 1.977 8.43-1.096 1.415-3.072.215-5.255-1.424-6.35v-2.97l3.822 1.442h.019z" fill="#fff"/><path d="M48.11 48.99c-11.184 0-13.864-7.269-9.433-18.416 3.4-8.552 6.473-14.369 12.065-19.296 6.398-5.62 10.08-5.48 13.48-5.48h79.808c4.505 0 8.889 2.95 9.105 7.344.215 4.393-2.239 21.376-14.585 31.24-6.557 5.264-10.856 4.608-13.929 4.608H48.11z" fill="#EAA94D"/><path d="M48.11 50.086a17.687 17.687 0 01-6.51-1.077 9.124 9.124 0 01-4.562-3.681 10.735 10.735 0 01-1.489-5.789 26.05 26.05 0 012.117-9.367 75.706 75.706 0 015.274-11.166 35.314 35.314 0 017.072-8.552c6.557-5.761 10.398-5.752 13.91-5.752h80.183a12.38 12.38 0 012.061.197c.673.13 1.334.315 1.977.553 3.325 1.264 5.91 4.018 6.098 7.634v.056a21.28 21.28 0 01-.103 2.707 39.845 39.845 0 01-.544 3.813c-1.377 7.306-5.255 18.294-14.35 25.563-6.258 5.011-10.557 4.927-13.714 4.861H48.11zm-5.704-3.11c1.826.668 3.76.985 5.704.937h77.448c2.81.056 6.67.131 12.309-4.384 8.58-6.856 12.243-17.3 13.563-24.26.253-1.359.422-2.586.516-3.607.085-.803.116-1.61.093-2.417v-.056c-.14-2.66-2.126-4.684-4.683-5.686a9.386 9.386 0 00-1.593-.45 10.06 10.06 0 00-1.667-.168H63.932c-3.12 0-6.558 0-12.468 5.208a33.47 33.47 0 00-6.65 8.075c-2 3.47-3.714 7.098-5.125 10.847a23.8 23.8 0 00-1.957 8.561 8.712 8.712 0 001.152 4.637 7.054 7.054 0 003.512 2.81l.01-.047z" fill="#201600"/><path d="M44.598 40.663h27.165c3.072 0 10.519-2.37 11.287-8.768.337-2.754-2.248-4.945-3.747-5.489 0 0 9.705-1.208 9.705-8.43 0-3.344-3.616-4.993-6.36-4.993H58.47l-13.873 27.69v-.01zm20.73-17.6l3.887-5.752h5.48c.768 0 2.903.103 2.81 2.35-.094 2.249-4 3.401-5.311 3.401h-6.867zm-8.778 12.55l5.152-7.784h6.904c1.32 0 2.52.993 1.976 3.457-.543 2.463-4.552 4.327-5.751 4.327h-8.28zm26.885 5.05H96.38l7.785-21.441h-7.953l-12.777 21.44zm19.37-22.041c2.201-.29 3.803-1.995 3.569-3.812-.234-1.818-2.22-3.054-4.431-2.764-2.21.29-3.793 1.986-3.56 3.803.235 1.818 2.221 3.054 4.422 2.81v-.037zm29.226 6.575h5.621l11.137-11.952h-11.437l-1.152 2.089s-2.033-3.016-9.264-3.016c-7.232 0-17.798 4.112-20.29 13.535-2.491 9.423 4.178 15.25 12.833 15.25 8.656 0 13.817-2.53 18.088-7.353l-3.344-3.176s-4.683 7.241-13.535 5.152c-3.794-.937-3.747-8.665 1.199-13.816 4.945-5.152 8.28-4.544 9.432-3.888 1.153.656 3.232 1.977.712 7.175zM14.341 12.486a7.897 7.897 0 117.897 7.888 7.888 7.888 0 01-7.896-7.887z" fill="#201600"/><path d="M16.918 10.95a2.81 2.81 0 115.62 0 2.81 2.81 0 01-5.62 0z" fill="#fff"/><path d="M3.485 16.57c.75 3.392 4.628 6.886 7.57 9.096.215.169.711.74.599-.271 0 0 0-.497.384-.113s16.86 13.114 17.6 13.648c.37.27.773.49 1.2.656.571.262.992.543 1.283.665.534.187.665.075.393-.356l-.74-1.208a4.685 4.685 0 00-.936-1.18L15.41 24.045S5.162 15.053 4.666 14.51c-.497-.543-.768-.768-.937-.131a9.798 9.798 0 00-.31 2.192h.066z" fill="#201600"/><path d="M27.465 35.342l.73-.178c-.271-.683.328-1.142.394-1.47.15-.628.3-6.604-.188-7.728-.402-.937-3.372-4.553-3.747-4.6-.234 0-.44.29-.59.6a.934.934 0 01-1.311-.244l.094-.224c.159-.356-.141-.384-.338-.356-.196.028-.936 0-.936 0-.216 0-.281.13-.244.271-.122.29-.524.937-1.442.206-.45-.43-.797-.206-1.171-.13-.88.164-1.743.412-2.576.74-.76.365-2.333 8.195-2.436 8.964-.103.768.131.768.3.936.538.343 1.094.656 1.667.937.553.272.628.468.628.712v3.616c0 .328-.122 1.236.59 1.208.712-.028.73.403.759.6.028.196-.225 1.592.412 1.648.637.056.684.094.684.665v4.88c0 .694 0 .937-.197 1.069-1.424.824-2.81 2.641-1.995 3.044 1.124.571 3.747-1.808 4.58-1.78.44 0 .656.328 1.293.356.375 0 .656.356 1.64.796.983.44 1.798.206 1.873-.637 0-.6-.497-1.068-1.18-1.47-.684-.403-.769-.75-.769-.75a23.43 23.43 0 01.216-3.438c0-2.52.45-2.426.843-2.81.187-.159.056-1.011.056-1.367 0-.356-.084-.74.468-.74.553 0 1.096-.169 1.04-.656-.065-.628-.056-1.649.478-1.105l.421-1.555-.046-.01zm-3.56-13.01v.074c-.103.281-.6 1.49-.937 1.49-.337 0-.665-1.246-.552-1.434a3.78 3.78 0 00.206-.459 1.18 1.18 0 001.274.328h.009zm-2.417-.638c.146.251.242.528.281.815-.14 1.368-.637 1.49-.796 1.087a8.918 8.918 0 00-.684-1.424.936.936 0 001.2-.478z" fill="#201600"/><path d="M14.652 31.877c.463.304.982.514 1.527.618.524.178.44-.937.44-1.124 0-.469-.73-.806-.656-1.265.22-1.102.553-2.179.993-3.213 0-.075.131-.253.225-.253.093 0 .122.066.13.328-.205 3.588-.42 6.716-.42 10.379 0 1.143 1.011.937 1.423.937 2.323 0 4.628 0 7.091-.15.403 0 .562-.572.59-.843.075-1.743-.271-3.513-.168-5.34.065-1.133-.14-3.531.374-3.531.516 0-.346 5.311.497 6.557 2.089-.571 1.62-5.068 1.433-7.925-.084-1.17-2.36-3.915-3.4-4.796-.422.75-.937 1.602-1.377 2.333-.356.58-.937 1.611-1.368 1.611-.43 0-1.283-1.873-1.705-2.895-.187-.477-.637-1.358-1.086-1.292-.937.131-2.857.44-3.073 1.18a47.308 47.308 0 00-1.873 8.046c-.066.516.131.45.365.684l.038-.046zm7.831 6.697c.496 0 1.011.15 1.452.169.758 0 .543.768.571 1.152.028.384-.403.543-.815.543H22.54c-.328 0-.768-.13-.768-.6v-.59c0-.355.16-.674.712-.674zm-3.42.168h1.284a.459.459 0 01.458.516c0 .365.17 1.17-.936 1.17-.51.03-1.02-.06-1.49-.262-.13-.14-.112-.543-.084-.852.056-.506.468-.553.806-.572h-.038z" fill="#EAA94D"/><path d="M21.967 40.99c.383-.125.79-.163 1.19-.112.327 0 .608.244.59 1.209a13.021 13.021 0 01-.14 1.498c0 .31-.254.553-.713.581a3.513 3.513 0 01-1.04-.056c-.196-.047-.309-.244-.337-.796a15.84 15.84 0 01.066-1.874c0-.215.103-.243.384-.402v-.047zm-2.521-.083a9.422 9.422 0 011.255 0c.328.056.497.243.469 1.208-.028.965 0 1.255-.075 1.555-.075.3-.31.496-.778.524a2.81 2.81 0 01-.936-.056c-.188-.046-.3-.243-.319-.796a16.52 16.52 0 01.047-1.873c0-.216 0-.487.337-.487v-.075z" fill="#fff"/><path d="M22.407 42.087a.936.936 0 00-.178.384c0 .365.187.515.43.515.244 0 .357-.206.432-.515a.451.451 0 00-.431-.525c-.14 0-.169 0-.253.14zm-2.464.056s-.13 0-.159.403a.459.459 0 00.393.543c.132 0 .384-.252.384-.552 0-.3-.056-.544-.309-.544-.103 0-.262.15-.309.15z" fill="#201600"/><path d="M22.81 46.91c.169 0 .6-.299.6-.467v-1.19a.515.515 0 00-.525-.543h-1.106c-.177 0-.384.477-.384.655v.937c0 .31.562.58.731.58l.684.029zm-2.127-.018a.328.328 0 00.318-.319v-1.47a.318.318 0 00-.318-.31H19.68c-.515-.046-.496.44-.496.61v1.17c0 .31.506.366.684.366l.777-.047h.038zm3.42 1.246c-.215-.085-.496 0-.609-.169-.112-.169-.065-.553-.28-.656-.46-.187-1.518-.215-1.565.281-.084.937.702.722 1.34 1.068.824.44 1.63 1.2 2.454.628.187-.356-.553-.88-.937-.88a.412.412 0 01-.403-.272zm-5.078-.431c.094-.31.272-.412.628-.393.265.014.53.014.796 0 .571 0 .525.89.112 1.096-.618.318-.646.159-.936.318-.469.29-.562.6-.937.852-.375.253-1.424.666-1.64.478-.215-.187 0-.937.47-1.218a1.98 1.98 0 01.814-.318c.14-.056.328-.384.44-.384.113 0 .253-.347.272-.43h-.019z" fill="#EAA94D"/><path d="M10.857 24.851c.075.075.262 0 .328 0l.084-.122a.177.177 0 000-.262l-4.861-4.58c-.075-.075-.281 0-.356.112l.084-.103a.328.328 0 00-.056.478l4.74 4.487.037-.01z" fill="#fff"/><path d="M160.723 12.992a4.215 4.215 0 114.225-4.215 4.09 4.09 0 01-2.588 3.935 4.08 4.08 0 01-1.637.28zm0-7.446a3.24 3.24 0 00-2.131 5.434 3.24 3.24 0 002.131 1.029 3.24 3.24 0 002.178-5.466 3.24 3.24 0 00-2.178-1.007v.01zm-.703 5.498h-.936V6.501h1.695c1.171 0 1.874.337 1.874 1.368a1.07 1.07 0 01-1.096 1.19l1.161 1.985h-1.152l-1.04-1.873h-.496v1.873h-.01zm.862-2.679c.431 0 .684-.094.684-.59 0-.497-.496-.506-.862-.506h-.674v1.096h.852z" fill="#201600"/></svg>
